X:980
T:Back up and Push
C:Ward Allen
M:2/4
L:1/16
K:D
fg|a2ba f2af|d2fd A2ef|g2ag e2ge|cdef g2fg|
a2ba f2af|d2fd A2ef|g2gb agfe|d2[df][df] [d2f2]:|
|:A2|A2BA F2A2|defg a2fa|g2ed cBAF|G2FG E2FG|
A2BA F2A2|defg a2f2|gage cABc|d2[df][df] [d2f2]:|


